X:8204
T:Young Love once dwelt. CJF.160
O:england
M:6/8
L:1/8
Q:90
S: C.J.Fox MS, 1829/33, Beverley,E.Yorks.
R:Air
A:East Yorkshire
B:Kidson Coll.Mitchell Lib.M1805
N:The beamed grace notes are as in the MS, but ABC cannot tie the note
N:before them to the note following them. - PJH.
K:C
c|c2d e<c'b|{b/}a2ge2e|f2g afd|cBa gfd|c2d ec'b|bag {f/}e2e|
f2g {b}a{g}f{e}d|cBdc2g|c'2b ac'a|g2c' b<gg|abc' c'ba|g2{b/a/g/^/f/a/}
(g=fd)|
c2d (ec'b)|bag {f/}e2e|f2g (afd)|(cBd)c2||
